X:1
T:Vidi Jerusalem
T:Clemens non Papa edit BMarble
T:Vidi Jerusalem
T:Copyright © 2015 by The Choral Public Domain Library. Edition may be freely distributed, duplicated, performed or recorded.
T:Copyright © 2015 by The Choral Public Domain Library. Edition may be freely distributed, duplicated, performed or recorded.
T:Copyright © 2015 by The Choral Public Domain Library. Edition may be freely distributed, duplicated, performed or recorded.
T:Copyright © 2015 by The Choral Public Domain Library. Edition may be freely distributed, duplicated, performed or recorded.
T:Copyright © 2015 by The Choral Public Domain Library. Edition may be freely distributed, duplicated, performed or recorded.
T:Copyright © 2015 by The Choral Public Domain Library. Edition may be freely distributed, duplicated, performed or recorded.
T:Copyright © 2015 by The Choral Public Domain Library. Edition may be freely distributed, duplicated, performed or recorded.
C:Clemens non Papa
C:edit BMarble
Z:Copyright © 2015 by The Choral Public Domain Library. Edition may be freely distributed, duplicated, performed or recorded.
%%score [ 1 2 3 4 ]
L:1/8
Q:1/2=100
M:4/2
K:Bb
V:1 treble nm="SOPRANO" snm="S."
V:2 treble nm="ALTO" snm="A."
V:3 treble-8 transpose=-12 nm="TENOR" snm="T."
V:4 bass nm="BASS" snm="B."
V:1
"^Easter season: I saw Jerusalem descending from heaven,adorned with pure gold and precious stones." B8 B4 F4 | %1
w: Vi- di Je-|
 B4 G4 F8 | z4 B8 A4 | G8 F4 f4- | f4 e4 (d4 c4) | B4 A4 G6 A2 | B2 c2 d6 B2 c4 | B8 f6 e2 | %8
w: ru- sa- lem|de- scen-|den- tem, de-|* scen- den- *|tem de coe- *||lo, de- scen-|
 (d4 c4) B4 A4 | G8 F8 | z16 | z8 z4 f4- | f4 e4 (d4 c4) | B4 A4 (G4 F4-) | (F4 =E4) F4 c4 | %15
w: den- * tem de|coe- lo||de-|* scen- den- *|tem de coe- *|* * lo, de|
 B2 G2 A2 B2 c2 B2 B4- | B4 A4 (B6 A2 | G4 F2 E2 F4) F4 | B6 A2 G4 F4 | (G12 F2 E2) | D4 B4 e8- | %21
w: coe- * * * * * *|* * lo _|_ _ _ _ or-|na- tam au- ro|mun- * *|do, or- na-|
 e4 d4 B4 d4 | c2 B2 A2 G2 F2 G2 A4- | A2 G2 F8 =E4 | F16 | z4 F4 B4 A4 | F4 A4 G8 | F4 A4 B4 c4 | %28
w: * tam au- ro|mun- * * * * * *||do,|or- na- tam|au- ro mun-|do, or- na- tam|
 A4 c8 B4- | (B4 A4 G8) | F8 z4 d4- | d4 c4 (B6 AG | A4) G4 z8 | B12 A4 | B6 G2 A4 B4 | %35
w: au- ro mun-||do, au-|* ro mun- * *|* do|et la-|pi- di- bus pre-|
 G4 G4 F4 d4- | d4 c4 d4 B4 | c4 e4 d4 c4 | (d4 c2 B2 A4) B4- | B4 B4 B4 B4- | B4 A4 (G4 E4) | %41
w: ti- o- sis, et|_ la- pi- di-|bus pre- ti- o-|sis _ _ _ in-|* tex- tam. Al-|* le- lu- *|
 F4 F4 F2 G2 A2 B2 | c6 B2 A4 B4 | F8 z4 F4- | F4 _E4 F8 | (D8 C4) c4- | (c2 B2) G4 A4 F4 | %47
w: ia, al- le- * * *|* * * lu-|ia, al-|* le- lu-|ia, _ al-|* * le- lu- ia,|
 (f6 e2 d4) (c4 | d4) (B8 A2 G2 | A8) G4 c4- | c4 B4 (c4 _A4) | G8 B6 _A2 | (G4 F2 E2) D4 (B2 c2 | %53
w: al- * * le-|* lu- * *|* ia, al-|* le- lu- *|ia, al- le-|lu- * * ia, al- *|
 d2 e2 d8) c4 | B4 G4 (f6 e2 | d4) c8 B4- | (B4 A4) B8- | B16- | B16 |] %59
w: * * * le-|lu- ia, al- *|* le- lu-|* * ia.|_||
V:2
 z16 | B,8 B,4 F,4 | B,4 G,4 F,4 F4 | E4 (D8 C4-) | C4 B,8 A,4 | (G,4 F,4) C8 | z8 F8- | %7
w: |Vi- di Je-|ru- sa- lem de-|scen- den- *|* tem de|coe- * lo,|de-|
 F4 E4 (D4 C4) | B,4 A,4 (G,4 F,4) | C8 z4 F4 | (E4 D4) C4 B,4 | E4 D4 B,4 D4- | (D4 C2 B,2) A,8 | %13
w: * scen- den- *|tem de coe- *|lo, de-|scen- * den- tem|de coe- lo, coe-|* * * lo,|
 F6 E2 (D4 C4) | D4 B,4 C6 D2 | E4 F4 G4 E4 | F8 z4 B,4 | (E12 D2 C2 | D4) B,4 (E4 D4) | %19
w: de- scen- den- *|tem de coe- *||lo or-|na- * *|* tam au- *|
 C4 (B,6 A,G, A,4) | B,8 C8 | F,4 F4 G4 F4 | G4 C4 z4 F4- | (F2 E2) C4 (D4 B,4) | C8 z4 B,4 | %25
w: ro mun- * * *|do, mun-|do, or- na- tam|au- ro, au-|* * ro mun- *|do, or-|
 E4 D4 B,4 C4 | D2 C2 F8 =E4 | F4 C4 D4 F4- | (F2 E2 C4) D4 E4 | F6 E2 D4 E4 | C8 (D6 E2 | %31
w: na- tam au- ro|mun- * * *|do, or- na- tam|_ _ _ au- ro|mun- * * *|* do _|
 F8) z4 F4- | F4 =E4 F4 F4 | B,8 z4 C4 | D4 G6 F2 F4- | F4 =E4 F8 | z4 (F6 =E2 F2 G2 | %37
w: _ et|_ la- pi- di-|bus pre-|ti- o- * *|* * sis,|pre- * * *|
 A4) (G6 F2) F4- | (F4 =E4) F4 G4- | G4 G4 G8 | (F6 E2 D4 C2 B,2 | C4) C4 (D2 C2 F4-) | %42
w: * ti- * o-|* * sis in-|* tex- tam.|Al- * * * *|* le- lu- * *|
 (F4 =E4) (F6 _E2 | D8 C8) | z4 B,4 (B,2 C2 D2 E2) | (F6 G2) A4 F4- | F4 E4 (C4 D4) | B,8 z4 F4- | %48
w: * * ia, _|_ _|al- le- * * *|lu- * ia, al-|* le- lu- *|ia, al-|
 F4 _E4 (F4 D4) | C8 z4 G4- | G4 F8 E4- | (E4 D2 C2) B,4 B,4- | B,4 A,4 (B,4 G,4) | F,8 z4 F4- | %54
w: * le- lu- *|ia, al-|* le- lu-|* * * ia, al-|* le- lu- *|ia, al-|
 F4 E4 (3(D4 E4 F4) | B,4 C4 D4 E4 | (F8 D4) G4- | G4 F4 (G4 F2 E2) | D16 |] %59
w: * le- lu- * *|ia, al- le- lu-|ia, _ al-|* le- lu- * *|ia.|
V:3
 z16 | z16 | z16 | z4 B4 B4 F4 | B4 G4 F8 | z4 f8 e4 | (d6 c2) B4 A4 | G2 F2 B8 A4 | B4 F4 z4 f4- | %9
w: |||Vi- di Je-|ru- sa- lem|de- scen-|den- * tem de|coe- * * *|* lo, de-|
 f4 e4 (d6 c2 | B4 A4 G4) F4 | G4 (B8 A4) | B8 f6 e2 | (d4 c4 B4 A4 | G8) F4 F4 | %15
w: * scen- den- *|* * * tem|de coe- *|lo, de- scen-|den- * * *|* tem de|
 B4 c4 (e2 d2 c2 B2 | c8) B8- | B16- | B8 z4 B4 | e4 d4 B4 d4- | (d2 c2) (B8 A4) | B4 B4 e4 d4 | %22
w: coe- lo, coe- * * *|* lo,|_|* or-|na- tam au- ro|_ _ mun- *|do, or- na- tam|
 e4 f4 d4 c4 | z4 F4 B8- | B4 A4 d4 d4 | (c4 B2 A2 G4) F4 | z4 F4 (B4 c4) | d4 (f6 e2 c4) | %28
w: au- ro mun- do,|or- na-|* tam au- ro|mun- * * * do,|or- na- *|tam au- * *|
 f4 (e6 d2 c2 B2 | c8) B4 B4- | B4 A4 B4 B4 | F4 c4 d4 d4 | c8 z4 f4- | f4 =e4 f4 f4 | %34
w: ro mun- * * *|* do et|_ la- pi- di-|bus pre- ti- o-|sis, et|_ la- pi- di-|
 B4 e4 (d4 B4) | (c6 B2 A4 B4) | F8 z4 f4- | f4 _e4 f4 f4 | B8 z4 e4- | e4 e4 e4 d4- | %40
w: bus pre- ti- *|o- * * *|sis, et|_ la- pi- di-|bus in-|* tex- tam. Al-|
 d2 c2 c8 B4- | (B4 A4) (B2 A2 G2 F2 | G8) F8 | z4 B8 A4 | (B4 G4) F8 | z4 F6 G2 A2 B2 | %46
w: * * * le-|* * lu- * * *|* ia,|al- le-|lu- * ia,|al- * * *|
 c6 B2 A4 B4 | F4 B8 A4 | (B4 G4) F8 | z4 f8 =e4 | (f4 d4) c8 | z4 e8 d4 | (e4 c4) B8 | z4 B8 A4 | %54
w: * * le- lu-|ia, al- le-|lu- * ia,|al- le-|lu- * ia,|al- le-|lu- * ia,|al- le-|
 B4 G4 B2 c2 d2 e2 | f6 e2 d4 (c2 B2) | c8 B8- | B16- | B16 |] %59
w: lu- ia, al- * * *|* * * le- *|lu- ia.|_||
V:4
 z16 | z16 | z16 | z16 | z16 | z16 | B,8 B,4 F,4 | B,4 G,4 F,8 | z16 | z8 B,6 A,2 | %10
w: ||||||Vi- di Je-|ru- sa- lem||de- scen-|
 (G,4 F,4) E,4 D,4 | (C,4 B,,4 E,4 F,4 | G,8) F,8 | z16 | B,12 A,4 | (G,4 F,4 E,4 G,4) | %16
w: den- * tem de|coe- * * *|* lo,||de- scen-|den- * * *|
 F,8 B,,4 E,4- | (E,4 D,2 C,2) B,,8- | B,,8 z8 | z4 B,,4 E,4 D,4 | B,,4 D,4 C,8 | B,,8 z8 | %22
w: tem de coe-|* * * lo,|_|or- na- tam|au- ro mun-|do,|
 z4 F,4 B,4 A,4 | F,4 A,4 G,8 | F,8 z8 | z16 | z16 | z4 F,4 B,4 A,4 | F,4 _A,4 G,8 | F,8 G,4 E,4 | %30
w: or- na- tam|au- ro mun-|do,|||or- na- tam|au- ro mun-|do, au- ro|
 F,8 B,,4 B,4- | B,4 A,4 B,4 B,4 | F,4 C4 B,4 A,4 | (G,8 F,8) | z16 | z8 z4 B,4- | %36
w: mun- do et|_ la- pi- di-|bus pre- ti- o-|sis, _||et|
 B,4 A,4 B,4 B,4 | F,4 C4 B,4 A,4 | (G,8 F,4) E,4- | E,4 E,4 (E,2 F,2 G,2 A,2 | B,4) F,4 (G,8 | %41
w: _ la- pi- di-|bus pre- ti- o-|sis _ in-|* tex- tam. _ _ _|_ Al- le-|
 F,8) (B,,4 D,4) | C,8 z4 B,,4 | B,,2 C,2 D,2 E,2 F,6 E,2 | D,4 E,4 B,,4 B,,4 | %45
w: * lu- *|ia, Al-|le- * * * * *|* lu- ia, al-|
 (B,,2 C,2 D,2 E,2 F,4) F,4 | C,8 z4 B,,4 | B,,2 C,2 D,2 E,2 F,6 E,2 | D,4 E,4 B,,4 F,4 | %49
w: le- * * * * lu-|ia, al-|le- * * * * *|* lu- ia, al-|
 F,2 G,2 A,2 B,2 C6 B,2 | A,4 B,4 F,4 C,4 | C,2 D,2 E,2 F,2 G,6 F,2 | E,4 F,4 B,,4 B,,4 | %53
w: le- * * * * *|* lu- ia, al-|le- * * * * *|* lu- ia, al-|
 B,,2 C,2 D,2 E,2 F,6 E,2 | D,4 E,4 B,,4 B,4- | B,4 A,4 (B,4 G,4) | (F,8 B,,4) E,4- | E,4 D,4 E,8 | %58
w: le- * * * * *|* lu- ia, al-|* le- lu- *|ia, _ al-|* le- lu-|
 B,,16 |] %59
w: ia.|

